X:38
T:Belle of The Mohawk Vale
M:4/4
Q:1/4=100
L:1/8
K:G
%%MIDI channel 1
%%MIDI program 72
%%MIDI transpose 8
%%MIDI grace 1/8
%%MIDI ratio 3 1
(B>c)|:(d2 B)d g2 f>e|(de) GA B2 B>c|d2 ed G2 (FG)|A4-Az (B>c)|(d2 B)d g2 f>e|
(de) GA B2 B>c|d2 c>B LAd-d2|G6 d2|(ec-c2) g2 (fe)|(ed) dB d3d|d2 (cB) (c<A) Ld2|
B4-Bz Bc|(d<Lg-g2) (e<Lg-g2)|.d.g LG>A B2 Le2|Ld2 .c.B LALd-d2|[1 LG4-Gz (B>c):|[2 LG4-Gz z2|]

